Papirus-GTK/24x24/apps/pencil.svg

<svg height="24" viewBox="0 0 24 24" width="24" xmlns="http://www.w3.org/2000/svg"><circle cx="12" cy="11.999996" fill="#ccc" r="9.9999962"/><path d="m13.999999 8.000006l-4.9999977 2.999999v10.537105a9.9999958 9.9999958 0 0 0 2.9999987.46289 9.9999958 9.9999958 0 0 0  6.999997-2.861327v-8.138668z" fill="#4e4e4e" fill-rule="evenodd"/><path d="m13.999999 9.0000056l-3.999998 2.4999994v10.29687a9.9999958 9.9999958 0 0 0 1.999999.203125 9.9999958 9.9999958 0 0 0  5.999997-2.012695v-8.4873z" fill="#fea332" fill-rule="evenodd"/><path d="m21.999996 12.000004a9.9999958 8.9999867 0 0 1 -1.36914 4.526365 9.9999958 9.9999958 0 0 1 -8.630856 4.973631 9.9999958 9.9999958 0 0 1 -8.5830042-4.907224 9.9999958 8.9999867 0 0 1 -1.3818354-3.880858 9.9999958 9.9999958 0 0 0  9.9648396 9.288082 9.9999958 9.9999958 0 0 0  9.999996-9.999996z" opacity=".3"/><path d="m16 12.500001a1.9999999 1.0000404 0 0 1 -1 .866019 1.9999999 1.0000404 0 0 1 -2.000001 0 1.9999999 1.0000404 0 0 1 -.999999-.866019" opacity=".2"/><path d="m16 12.000001a1.9999999 1.0000404 0 0 1 -1 .866019 1.9999999 1.0000404 0 0 1 -2.000001 0 1.9999999 1.0000404 0 0 1 -.999999-.866019" fill="#4e4e4e"/><path d="m12 2.0000085a9.9999958 9.9999958 0 0 0 -9.9999958 9.9999955 9.9999958 8.9999867 0 0 1  1.36914-4.5263648 9.9999958 9.9999958 0 0 1  8.6308558-4.9736309 9.9999958 9.9999958 0 0 1  8.583004 4.9072244 9.9999958 8.9999867 0 0 1  1.381836 3.8808583 9.9999958 9.9999958 0 0 0 -9.96484-9.2880825z" fill="#fff" opacity=".2"/></svg>

<?xml version="1.0" encoding="UTF-8" standalone="no"?>
<svg
   xmlns:dc="http://purl.org/dc/elements/1.1/"
   xmlns:cc="http://creativecommons.org/ns#"
   xmlns:rdf="http://www.w3.org/1999/02/22-rdf-syntax-ns#"
   xmlns:svg="http://www.w3.org/2000/svg"
   xmlns="http://www.w3.org/2000/svg"
   xmlns:sodipodi="http://sodipodi.sourceforge.net/DTD/sodipodi-0.dtd"
   xmlns:inkscape="http://www.inkscape.org/namespaces/inkscape"
   version="1.1"
   id="svg2"
   viewBox="0 0 24 24"
   height="24"
   width="24"
   inkscape:version="0.91 r13725"
   sodipodi:docname="pencil.svg">
  <sodipodi:namedview
     pagecolor="#ffffff"
     bordercolor="#666666"
     borderopacity="1"
     objecttolerance="10"
     gridtolerance="10"
     guidetolerance="10"
     inkscape:pageopacity="0"
     inkscape:pageshadow="2"
     inkscape:window-width="1600"
     inkscape:window-height="849"
     id="namedview16"
     showgrid="false"
     inkscape:zoom="3.77"
     inkscape:cx="21.768563"
     inkscape:cy="11.804878"
     inkscape:window-x="0"
     inkscape:window-y="0"
     inkscape:window-maximized="1"
     inkscape:current-layer="svg2" />
  <defs
     id="defs4" />
  <metadata
     id="metadata7">
    <rdf:RDF>
      <cc:Work
         rdf:about="">
        <dc:format>image/svg+xml</dc:format>
        <dc:type
           rdf:resource="http://purl.org/dc/dcmitype/StillImage" />
        <dc:title></dc:title>
      </cc:Work>
    </rdf:RDF>
  </metadata>
  <g
     id="g4240">
    <circle
       style="opacity:1;fill:#cccccc;fill-opacity:1;stroke:none;stroke-width:10;stroke-miterlimit:4;stroke-dasharray:none;stroke-opacity:1"
       id="circle4196"
       cx="12"
       cy="11.999996"
       r="9.9999962" />
    <path
       id="path4201"
       d="m 13.999999,8.000006 -4.9999977,2.999999 0,10.537105 A 9.9999958,9.9999958 0 0 0 12,22 9.9999958,9.9999958 0 0 0 18.999997,19.138673 l 0,-8.138668 -4.999998,-2.999999 z"
       style="fill:#4e4e4e;fill-opacity:1;fill-rule:evenodd;stroke:none;stroke-width:1px;stroke-linecap:butt;stroke-linejoin:miter;stroke-opacity:1"
       inkscape:connector-curvature="0" />
    <path
       id="path4203"
       d="m 13.999999,9.0000056 -3.999998,2.4999994 0,10.29687 A 9.9999958,9.9999958 0 0 0 12,22 9.9999958,9.9999958 0 0 0 17.999997,19.987305 l 0,-8.4873 -3.999998,-2.4999994 z"
       style="fill:#fea332;fill-opacity:1;fill-rule:evenodd;stroke:none;stroke-width:1px;stroke-linecap:butt;stroke-linejoin:miter;stroke-opacity:1"
       inkscape:connector-curvature="0" />
    <path
       id="path4226"
       d="M 21.999996,12.000004 A 9.9999958,8.9999867 0 0 1 20.630856,16.526369 9.9999958,9.9999958 0 0 1 12,21.5 9.9999958,9.9999958 0 0 1 3.4169958,16.592776 9.9999958,8.9999867 0 0 1 2.0351604,12.711918 9.9999958,9.9999958 0 0 0 12,22 9.9999958,9.9999958 0 0 0 21.999996,12.000004 Z"
       style="opacity:0.3;fill:#000000;fill-opacity:1;stroke:none;stroke-width:10;stroke-miterlimit:4;stroke-dasharray:none;stroke-opacity:1"
       inkscape:connector-curvature="0" />
    <path
       inkscape:connector-curvature="0"
       style="opacity:0.2;fill:#000000;fill-opacity:1;stroke:none;stroke-width:10;stroke-miterlimit:4;stroke-dasharray:none;stroke-opacity:1"
       id="path4238"
       d="m 16,12.500001 a 1.9999999,1.0000404 0 0 1 -1,0.866019 1.9999999,1.0000404 0 0 1 -2.000001,0 A 1.9999999,1.0000404 0 0 1 12,12.500001" />
    <path
       d="m 16,12.000001 a 1.9999999,1.0000404 0 0 1 -1,0.866019 1.9999999,1.0000404 0 0 1 -2.000001,0 A 1.9999999,1.0000404 0 0 1 12,12.000001"
       id="path4212"
       style="opacity:1;fill:#4e4e4e;fill-opacity:1;stroke:none;stroke-width:10;stroke-miterlimit:4;stroke-dasharray:none;stroke-opacity:1"
       inkscape:connector-curvature="0" />
    <path
       id="circle4216"
       d="M 12,2.0000085 A 9.9999958,9.9999958 0 0 0 2.0000042,12.000004 9.9999958,8.9999867 0 0 1 3.3691442,7.4736392 9.9999958,9.9999958 0 0 1 12,2.5000083 9.9999958,9.9999958 0 0 1 20.583004,7.4072327 9.9999958,8.9999867 0 0 1 21.96484,11.288091 9.9999958,9.9999958 0 0 0 12,2.0000085 Z"
       style="opacity:0.2;fill:#ffffff;fill-opacity:1;stroke:none;stroke-width:10;stroke-miterlimit:4;stroke-dasharray:none;stroke-opacity:1"
       inkscape:connector-curvature="0" />
  </g>
</svg>
